Candle/plot.svg

<svg xmlns="http://www.w3.org/2000/svg" viewBox="0 0 1200 800" preserveAspectRatio="none" width="1200" height="800">
 <path d="M0,0H1200V800H0Z" style="fill: white;"></path>
 <g>
  <g transform="translate(120,80)">
   <path d="M0,0H960V640H0Z" style="fill: white; stroke: black; stroke-width: 1;"></path>
   <svg x="0" y="0" overflow="hidden" width="960" height="640" viewBox="0 0 960 640">
    <g>
     <path d="M4,256v44h32v-44zM84,240v45h32v-45zM164,237v42h32v-42zM244,234v43h32v-43zM324,238v43h32v-43zM404,243v44h32v-44zM484,255v43h32v-43zM564,267v44h32v-44zM644,283v41h32v-41zM724,300v42h32v-42zM804,317v40h32v-40zM884,333v43h32v-43z" style="stroke: #00009a; stroke-width: 1; fill: #ffff00;"></path>
     <path d="M4,279h32M4,189h32M4,365h32M20,256v-67M20,300v65M84,263h32M84,173h32M84,354h32M100,240v-67M100,285v69M164,258h32M164,175h32M164,338h32M180,237v-62M180,279v59M244,255h32M244,170h32M244,337h32M260,234v-64M260,277v60M324,259h32M324,174h32M324,344h32M340,238v-64M340,281v63M404,266h32M404,179h32M404,352h32M420,243v-64M420,287v65M484,277h32M484,190h32M484,364h32M500,255v-65M500,298v66M564,290h32M564,202h32M564,377h32M580,267v-65M580,311v66M644,304h32M644,222h32M644,380h32M660,283v-61M660,324v56M724,319h32M724,237h32M724,399h32M740,300v-63M740,342v57M804,336h32M804,256h32M804,417h32M820,317v-61M820,357v60M884,354h32M884,268h32M884,437h32M900,333v-65M900,376v61" style="stroke: #00009a; stroke-width: 1; fill: none;"></path>
     <path d="M4,278h32M84,263h32M164,259h32M244,255h32M324,259h32M404,265h32M484,276h32M564,289h32M644,304h32M724,320h32M804,337h32M884,354h32" style="stroke: #00009a; stroke-width: 1; stroke-dasharray: 3,3; fill: none;"></path>
     <path d="M16,378l8,8m0,-8l-8,8M16,376l8,8m0,-8l-8,8M16,373l8,8m0,-8l-8,8M16,370l8,8m0,-8l-8,8M16,365l8,8m0,-8l-8,8M16,364l8,8m0,-8l-8,8M16,184l8,8m0,-8l-8,8M16,183l8,8m0,-8l-8,8M16,180l8,8m0,-8l-8,8M16,179l8,8m0,-8l-8,8M16,167l8,8m0,-8l-8,8M16,165l8,8m0,-8l-8,8M16,163l8,8m0,-8l-8,8M16,152l8,8m0,-8l-8,8M96,353l8,8m0,-8l-8,8M96,166l8,8m0,-8l-8,8M96,165l8,8m0,-8l-8,8M96,161l8,8m0,-8l-8,8M96,154l8,8m0,-8l-8,8M176,362l8,8m0,-8l-8,8M176,344l8,8m0,-8l-8,8M176,341l8,8m0,-8l-8,8M176,339l8,8m0,-8l-8,8M176,337l8,8m0,-8l-8,8M176,162l8,8m0,-8l-8,8M176,156l8,8m0,-8l-8,8M256,382l8,8m0,-8l-8,8M256,353l8,8m0,-8l-8,8M256,348l8,8m0,-8l-8,8M256,339l8,8m0,-8l-8,8M256,338l8,8m0,-8l-8,8M256,162l8,8m0,-8l-8,8M256,155l8,8m0,-8l-8,8M256,113l8,8m0,-8l-8,8M336,369l8,8m0,-8l-8,8M336,356l8,8m0,-8l-8,8M336,348l8,8m0,-8l-8,8M336,346l8,8m0,-8l-8,8M336,341l8,8m0,-8l-8,8M336,168l8,8m0,-8l-8,8M336,164l8,8m0,-8l-8,8M336,158l8,8m0,-8l-8,8M336,151l8,8m0,-8l-8,8M336,145l8,8m0,-8l-8,8M416,366l8,8m0,-8l-8,8M416,172l8,8m0,-8l-8,8M416,171l8,8m0,-8l-8,8M416,169l8,8m0,-8l-8,8M416,168l8,8m0,-8l-8,8M496,369l8,8m0,-8l-8,8M496,184l8,8m0,-8l-8,8M576,380l8,8m0,-8l-8,8M576,378l8,8m0,-8l-8,8M576,195l8,8m0,-8l-8,8M576,174l8,8m0,-8l-8,8M656,401l8,8m0,-8l-8,8M656,398l8,8m0,-8l-8,8M656,387l8,8m0,-8l-8,8M656,387l8,8m0,-8l-8,8M656,216l8,8m0,-8l-8,8M656,214l8,8m0,-8l-8,8M656,197l8,8m0,-8l-8,8M736,411l8,8m0,-8l-8,8M736,407l8,8m0,-8l-8,8M736,231l8,8m0,-8l-8,8M736,229l8,8m0,-8l-8,8M736,225l8,8m0,-8l-8,8M736,223l8,8m0,-8l-8,8M816,433l8,8m0,-8l-8,8M816,425l8,8m0,-8l-8,8M816,423l8,8m0,-8l-8,8M816,417l8,8m0,-8l-8,8M816,415l8,8m0,-8l-8,8M816,414l8,8m0,-8l-8,8M816,251l8,8m0,-8l-8,8M816,251l8,8m0,-8l-8,8M816,248l8,8m0,-8l-8,8M816,244l8,8m0,-8l-8,8M816,232l8,8m0,-8l-8,8M896,453l8,8m0,-8l-8,8M896,450l8,8m0,-8l-8,8M896,443l8,8m0,-8l-8,8M896,263l8,8m0,-8l-8,8M896,263l8,8m0,-8l-8,8M896,257l8,8m0,-8l-8,8M896,256l8,8m0,-8l-8,8M896,254l8,8m0,-8l-8,8M896,250l8,8m0,-8l-8,8" style="stroke: #00009a; fill: none;"></path>
    </g>
    <g>
     <path d="M44,226v60h32v-60zM124,238v60h32v-60zM204,246v63h32v-63zM284,259v60h32v-60zM364,269v62h32v-62zM444,284v64h32v-64zM524,302v59h32v-59zM604,315v61h32v-61zM684,328v60h32v-60zM764,338v59h32v-59zM844,350v64h32v-64zM924,350v63h32v-63z" style="stroke: #ff0000; stroke-width: 1; fill: #00ff00;"></path>
     <path d="M44,256h32M44,138h32M44,376h32M60,226v-88M60,286v90M124,267h32M124,148h32M124,383h32M140,238v-90M140,298v85M204,278h32M204,151h32M204,399h32M220,246v-95M220,309v90M284,289h32M284,172h32M284,408h32M300,259v-87M300,319v89M364,301h32M364,175h32M364,423h32M380,269v-94M380,331v92M444,316h32M444,192h32M444,440h32M460,284v-92M460,348v92M524,332h32M524,220h32M524,448h32M540,302v-82M540,361v87M604,344h32M604,233h32M604,465h32M620,315v-82M620,376v89M684,359h32M684,241h32M684,474h32M700,328v-87M700,388v86M764,367h32M764,255h32M764,484h32M780,338v-83M780,397v87M844,383h32M844,260h32M844,505h32M860,350v-90M860,414v91M924,383h32M924,257h32M924,500h32M940,350v-93M940,413v87" style="stroke: #ff0000; stroke-width: 1; fill: none;"></path>
     <path d="M56,256a4,4,0,1,0,8,0a4,4,0,1,0,-8,0zM136,267a4,4,0,1,0,8,0a4,4,0,1,0,-8,0zM216,277a4,4,0,1,0,8,0a4,4,0,1,0,-8,0zM296,289a4,4,0,1,0,8,0a4,4,0,1,0,-8,0zM376,300a4,4,0,1,0,8,0a4,4,0,1,0,-8,0zM456,315a4,4,0,1,0,8,0a4,4,0,1,0,-8,0zM536,331a4,4,0,1,0,8,0a4,4,0,1,0,-8,0zM616,345a4,4,0,1,0,8,0a4,4,0,1,0,-8,0zM696,358a4,4,0,1,0,8,0a4,4,0,1,0,-8,0zM776,368a4,4,0,1,0,8,0a4,4,0,1,0,-8,0zM856,382a4,4,0,1,0,8,0a4,4,0,1,0,-8,0zM936,382a4,4,0,1,0,8,0a4,4,0,1,0,-8,0z" style="stroke: #ff0000; fill: none;"></path>
     <path d="M56,423l8,8m0,-8l-8,8M56,396l8,8m0,-8l-8,8M56,378l8,8m0,-8l-8,8M56,374l8,8m0,-8l-8,8M56,374l8,8m0,-8l-8,8M56,373l8,8m0,-8l-8,8M56,124l8,8m0,-8l-8,8M56,122l8,8m0,-8l-8,8M56,119l8,8m0,-8l-8,8M56,119l8,8m0,-8l-8,8M56,103l8,8m0,-8l-8,8M56,100l8,8m0,-8l-8,8M56,94l8,8m0,-8l-8,8M136,386l8,8m0,-8l-8,8M136,141l8,8m0,-8l-8,8M136,106l8,8m0,-8l-8,8M136,82l8,8m0,-8l-8,8M216,416l8,8m0,-8l-8,8M216,145l8,8m0,-8l-8,8M216,143l8,8m0,-8l-8,8M216,141l8,8m0,-8l-8,8M216,122l8,8m0,-8l-8,8M296,452l8,8m0,-8l-8,8M296,444l8,8m0,-8l-8,8M296,429l8,8m0,-8l-8,8M296,424l8,8m0,-8l-8,8M296,416l8,8m0,-8l-8,8M296,414l8,8m0,-8l-8,8M296,407l8,8m0,-8l-8,8M296,147l8,8m0,-8l-8,8M376,451l8,8m0,-8l-8,8M376,432l8,8m0,-8l-8,8M376,426l8,8m0,-8l-8,8M376,421l8,8m0,-8l-8,8M376,154l8,8m0,-8l-8,8M376,153l8,8m0,-8l-8,8M376,151l8,8m0,-8l-8,8M376,150l8,8m0,-8l-8,8M376,149l8,8m0,-8l-8,8M376,146l8,8m0,-8l-8,8M376,144l8,8m0,-8l-8,8M456,456l8,8m0,-8l-8,8M456,174l8,8m0,-8l-8,8M536,464l8,8m0,-8l-8,8M536,459l8,8m0,-8l-8,8M536,457l8,8m0,-8l-8,8M536,449l8,8m0,-8l-8,8M536,448l8,8m0,-8l-8,8M536,204l8,8m0,-8l-8,8M536,202l8,8m0,-8l-8,8M536,199l8,8m0,-8l-8,8M536,193l8,8m0,-8l-8,8M536,188l8,8m0,-8l-8,8M536,175l8,8m0,-8l-8,8M536,165l8,8m0,-8l-8,8M616,479l8,8m0,-8l-8,8M616,218l8,8m0,-8l-8,8M616,211l8,8m0,-8l-8,8M616,211l8,8m0,-8l-8,8M616,210l8,8m0,-8l-8,8M616,210l8,8m0,-8l-8,8M616,197l8,8m0,-8l-8,8M696,482l8,8m0,-8l-8,8M696,481l8,8m0,-8l-8,8M696,478l8,8m0,-8l-8,8M696,476l8,8m0,-8l-8,8M696,227l8,8m0,-8l-8,8M776,517l8,8m0,-8l-8,8M776,517l8,8m0,-8l-8,8M776,499l8,8m0,-8l-8,8M776,489l8,8m0,-8l-8,8M776,484l8,8m0,-8l-8,8M776,237l8,8m0,-8l-8,8M776,231l8,8m0,-8l-8,8M856,518l8,8m0,-8l-8,8M856,508l8,8m0,-8l-8,8M856,506l8,8m0,-8l-8,8M856,247l8,8m0,-8l-8,8M856,243l8,8m0,-8l-8,8M936,532l8,8m0,-8l-8,8M936,504l8,8m0,-8l-8,8M936,245l8,8m0,-8l-8,8M936,245l8,8m0,-8l-8,8M936,204l8,8m0,-8l-8,8" style="stroke: #ff0000; fill: none;"></path>
    </g>
   </svg>
   <g>
    <g transform="translate(0,640)">
     <path d="M0,0h960M0,-24v24m82,-12v12m73,-12v12m82,-24v24m79,-12v12m81,-12v12m79,-24v24m81,-12v12m82,-12v12m79,-24v24m82,-12v12m78,-12v12m82,-24v24" style="stroke: black; stroke-width: 1;"></path>
     <g font-family="Arial" font-size="28" space="preserve" fill="black" text-anchor="middle">
      <text dy=".8em" transform="translate(0,6)">
       01/10
      </text>
      <text dy=".8em" transform="translate(237,6)">
       04/10
      </text>
      <text dy=".8em" transform="translate(476,6)">
       07/10
      </text>
      <text dy=".8em" transform="translate(718,6)">
       10/10
      </text>
      <text dy=".8em" transform="translate(960,6)">
       01/11
      </text>
     </g>
     <g font-family="Arial" font-size="28" space="preserve" transform="translate(960,45)">
      <text fill="black" text-anchor="end" dy=".4em">
       Date [month/year]
      </text>
     </g>
    </g>
    <g>
     <path d="M0,0v640M36,640h-36m18,-13h-18m18,-13h-18m18,-12h-18m18,-13h-18m36,-13h-36m18,-13h-18m18,-13h-18m18,-12h-18m18,-13h-18m36,-13h-36m18,-13h-18m18,-13h-18m18,-12h-18m18,-13h-18m36,-13h-36m18,-13h-18m18,-13h-18m18,-12h-18m18,-13h-18m36,-13h-36m18,-13h-18m18,-13h-18m18,-12h-18m18,-13h-18m36,-13h-36m18,-13h-18m18,-13h-18m18,-12h-18m18,-13h-18m36,-13h-36m18,-13h-18m18,-13h-18m18,-12h-18m18,-13h-18m36,-13h-36m18,-13h-18m18,-13h-18m18,-12h-18m18,-13h-18m36,-13h-36m18,-13h-18m18,-13h-18m18,-12h-18m18,-13h-18m36,-13h-36m18,-13h-18m18,-13h-18m18,-12h-18m18,-13h-18m36,-13h-36" style="stroke: black; stroke-width: 1;"></path>
     <g font-family="Arial" font-size="28" space="preserve" fill="black" text-anchor="end">
      <text dy=".4em" transform="translate(-4,640)">
       0
      </text>
      <text dy=".4em" transform="translate(-4,576)">
       100
      </text>
      <text dy=".4em" transform="translate(-4,512)">
       200
      </text>
      <text dy=".4em" transform="translate(-4,448)">
       300
      </text>
      <text dy=".4em" transform="translate(-4,384)">
       400
      </text>
      <text dy=".4em" transform="translate(-4,320)">
       500
      </text>
      <text dy=".4em" transform="translate(-4,256)">
       600
      </text>
      <text dy=".4em" transform="translate(-4,192)">
       700
      </text>
      <text dy=".4em" transform="translate(-4,128)">
       800
      </text>
      <text dy=".4em" transform="translate(-4,64)">
       900
      </text>
      <text dy=".4em" transform="translate(-4)">
       1000
      </text>
     </g>
    </g>
   </g>
  </g>
  <g transform="translate(120,4)" font-family="Arial" font-size="40" space="preserve">
   <text fill="black" text-anchor="middle" dy=".8em" transform="translate(480)">
    Machine A + B
   </text>
  </g>
  <g transform="translate(936,52)" font-family="Arial" font-size="19" space="preserve" fill="black">
   <path d="M0,0H240V212H0Z" style="fill: white; stroke: black; stroke-width: 1;"></path>
   <text text-anchor="middle" dy=".4em" transform="translate(120,18)">
    h1
   </text>
   <text text-anchor="start" dy=".4em" transform="translate(12,53)">
    Entries
   </text>
   <text text-anchor="end" dy=".4em" transform="translate(228,53)">
    13000
   </text>
   <text text-anchor="start" dy=".4em" transform="translate(12,88)">
    Mean x
   </text>
   <text text-anchor="end" dy=".4em" transform="translate(228,88)">
    1.278e+9
   </text>
   <text text-anchor="start" dy=".4em" transform="translate(12,124)">
    Mean y
   </text>
   <text text-anchor="end" dy=".4em" transform="translate(228,124)">
    550.6
   </text>
   <text text-anchor="start" dy=".4em" transform="translate(12,159)">
    Std Dev x
   </text>
   <text text-anchor="end" dy=".4em" transform="translate(228,159)">
    9698376
   </text>
   <text text-anchor="start" dy=".4em" transform="translate(12,194)">
    Std Dev y
   </text>
   <text text-anchor="end" dy=".4em" transform="translate(228,194)">
    69.28
   </text>
   <path d="M0,35h240" style="stroke: black; stroke-width: 1;"></path>
  </g>
  <g transform="translate(936,52)" font-family="Arial" font-size="21" space="preserve">
   <path d="M0,0H240V192H0Z" style="fill: white; stroke: black; stroke-width: 1;"></path>
   <path d="M7,15v72h46v-72z" style="fill: #ffff00; stroke: #00009a; stroke-width: 1;"></path>
   <text fill="black" text-anchor="start" dy=".4em" transform="translate(60,51)">
    Machine A + B
   </text>
   <path d="M7,105v72h46v-72z" style="fill: #00ff00; stroke: #ff0000; stroke-width: 1;"></path>
   <text fill="black" text-anchor="start" dy=".4em" transform="translate(60,141)">
    Machine B
   </text>
  </g>
 </g>
</svg>

<svg xmlns="http://www.w3.org/2000/svg" viewBox="0 0 1200 800" preserveAspectRatio="none" width="1200" height="800">
 <path d="M0,0H1200V800H0Z" style="fill: white;"></path>
 <g>
  <g transform="translate(120,80)">
   <path d="M0,0H960V640H0Z" style="fill: white; stroke: black; stroke-width: 1;"></path>
   <svg x="0" y="0" overflow="hidden" width="960" height="640" viewBox="0 0 960 640">
    <g>
     <path d="M4,256v44h32v-44zM84,240v45h32v-45zM164,237v42h32v-42zM244,234v43h32v-43zM324,238v43h32v-43zM404,243v44h32v-44zM484,255v43h32v-43zM564,267v44h32v-44zM644,283v41h32v-41zM724,300v42h32v-42zM804,317v40h32v-40zM884,333v43h32v-43z" style="stroke: #00009a; stroke-width: 1; fill: #ffff00;"></path>
     <path d="M4,279h32M4,189h32M4,365h32M20,256v-67M20,300v65M84,263h32M84,173h32M84,354h32M100,240v-67M100,285v69M164,258h32M164,175h32M164,338h32M180,237v-62M180,279v59M244,255h32M244,170h32M244,337h32M260,234v-64M260,277v60M324,259h32M324,174h32M324,344h32M340,238v-64M340,281v63M404,266h32M404,179h32M404,352h32M420,243v-64M420,287v65M484,277h32M484,190h32M484,364h32M500,255v-65M500,298v66M564,290h32M564,202h32M564,377h32M580,267v-65M580,311v66M644,304h32M644,222h32M644,380h32M660,283v-61M660,324v56M724,319h32M724,237h32M724,399h32M740,300v-63M740,342v57M804,336h32M804,256h32M804,417h32M820,317v-61M820,357v60M884,354h32M884,268h32M884,437h32M900,333v-65M900,376v61" style="stroke: #00009a; stroke-width: 1; fill: none;"></path>
     <path d="M4,278h32M84,263h32M164,259h32M244,255h32M324,259h32M404,265h32M484,276h32M564,289h32M644,304h32M724,320h32M804,337h32M884,354h32" style="stroke: #00009a; stroke-width: 1; stroke-dasharray: 3,3; fill: none;"></path>
     <path d="M16,378l8,8m0,-8l-8,8M16,376l8,8m0,-8l-8,8M16,373l8,8m0,-8l-8,8M16,370l8,8m0,-8l-8,8M16,365l8,8m0,-8l-8,8M16,364l8,8m0,-8l-8,8M16,184l8,8m0,-8l-8,8M16,183l8,8m0,-8l-8,8M16,180l8,8m0,-8l-8,8M16,179l8,8m0,-8l-8,8M16,167l8,8m0,-8l-8,8M16,165l8,8m0,-8l-8,8M16,163l8,8m0,-8l-8,8M16,152l8,8m0,-8l-8,8M96,353l8,8m0,-8l-8,8M96,166l8,8m0,-8l-8,8M96,165l8,8m0,-8l-8,8M96,161l8,8m0,-8l-8,8M96,154l8,8m0,-8l-8,8M176,362l8,8m0,-8l-8,8M176,344l8,8m0,-8l-8,8M176,341l8,8m0,-8l-8,8M176,339l8,8m0,-8l-8,8M176,337l8,8m0,-8l-8,8M176,162l8,8m0,-8l-8,8M176,156l8,8m0,-8l-8,8M256,382l8,8m0,-8l-8,8M256,353l8,8m0,-8l-8,8M256,348l8,8m0,-8l-8,8M256,339l8,8m0,-8l-8,8M256,338l8,8m0,-8l-8,8M256,162l8,8m0,-8l-8,8M256,155l8,8m0,-8l-8,8M256,113l8,8m0,-8l-8,8M336,369l8,8m0,-8l-8,8M336,356l8,8m0,-8l-8,8M336,348l8,8m0,-8l-8,8M336,346l8,8m0,-8l-8,8M336,341l8,8m0,-8l-8,8M336,168l8,8m0,-8l-8,8M336,164l8,8m0,-8l-8,8M336,158l8,8m0,-8l-8,8M336,151l8,8m0,-8l-8,8M336,145l8,8m0,-8l-8,8M416,366l8,8m0,-8l-8,8M416,172l8,8m0,-8l-8,8M416,171l8,8m0,-8l-8,8M416,169l8,8m0,-8l-8,8M416,168l8,8m0,-8l-8,8M496,369l8,8m0,-8l-8,8M496,184l8,8m0,-8l-8,8M576,380l8,8m0,-8l-8,8M576,378l8,8m0,-8l-8,8M576,195l8,8m0,-8l-8,8M576,174l8,8m0,-8l-8,8M656,401l8,8m0,-8l-8,8M656,398l8,8m0,-8l-8,8M656,387l8,8m0,-8l-8,8M656,387l8,8m0,-8l-8,8M656,216l8,8m0,-8l-8,8M656,214l8,8m0,-8l-8,8M656,197l8,8m0,-8l-8,8M736,411l8,8m0,-8l-8,8M736,407l8,8m0,-8l-8,8M736,231l8,8m0,-8l-8,8M736,229l8,8m0,-8l-8,8M736,225l8,8m0,-8l-8,8M736,223l8,8m0,-8l-8,8M816,433l8,8m0,-8l-8,8M816,425l8,8m0,-8l-8,8M816,423l8,8m0,-8l-8,8M816,417l8,8m0,-8l-8,8M816,415l8,8m0,-8l-8,8M816,414l8,8m0,-8l-8,8M816,251l8,8m0,-8l-8,8M816,251l8,8m0,-8l-8,8M816,248l8,8m0,-8l-8,8M816,244l8,8m0,-8l-8,8M816,232l8,8m0,-8l-8,8M896,453l8,8m0,-8l-8,8M896,450l8,8m0,-8l-8,8M896,443l8,8m0,-8l-8,8M896,263l8,8m0,-8l-8,8M896,263l8,8m0,-8l-8,8M896,257l8,8m0,-8l-8,8M896,256l8,8m0,-8l-8,8M896,254l8,8m0,-8l-8,8M896,250l8,8m0,-8l-8,8" style="stroke: #00009a; fill: none;"></path>
    </g>
    <g>
     <path d="M44,226v60h32v-60zM124,238v60h32v-60zM204,246v63h32v-63zM284,259v60h32v-60zM364,269v62h32v-62zM444,284v64h32v-64zM524,302v59h32v-59zM604,315v61h32v-61zM684,328v60h32v-60zM764,338v59h32v-59zM844,350v64h32v-64zM924,350v63h32v-63z" style="stroke: #ff0000; stroke-width: 1; fill: #00ff00;"></path>
     <path d="M44,256h32M44,138h32M44,376h32M60,226v-88M60,286v90M124,267h32M124,148h32M124,383h32M140,238v-90M140,298v85M204,278h32M204,151h32M204,399h32M220,246v-95M220,309v90M284,289h32M284,172h32M284,408h32M300,259v-87M300,319v89M364,301h32M364,175h32M364,423h32M380,269v-94M380,331v92M444,316h32M444,192h32M444,440h32M460,284v-92M460,348v92M524,332h32M524,220h32M524,448h32M540,302v-82M540,361v87M604,344h32M604,233h32M604,465h32M620,315v-82M620,376v89M684,359h32M684,241h32M684,474h32M700,328v-87M700,388v86M764,367h32M764,255h32M764,484h32M780,338v-83M780,397v87M844,383h32M844,260h32M844,505h32M860,350v-90M860,414v91M924,383h32M924,257h32M924,500h32M940,350v-93M940,413v87" style="stroke: #ff0000; stroke-width: 1; fill: none;"></path>
     <path d="M56,256a4,4,0,1,0,8,0a4,4,0,1,0,-8,0zM136,267a4,4,0,1,0,8,0a4,4,0,1,0,-8,0zM216,277a4,4,0,1,0,8,0a4,4,0,1,0,-8,0zM296,289a4,4,0,1,0,8,0a4,4,0,1,0,-8,0zM376,300a4,4,0,1,0,8,0a4,4,0,1,0,-8,0zM456,315a4,4,0,1,0,8,0a4,4,0,1,0,-8,0zM536,331a4,4,0,1,0,8,0a4,4,0,1,0,-8,0zM616,345a4,4,0,1,0,8,0a4,4,0,1,0,-8,0zM696,358a4,4,0,1,0,8,0a4,4,0,1,0,-8,0zM776,368a4,4,0,1,0,8,0a4,4,0,1,0,-8,0zM856,382a4,4,0,1,0,8,0a4,4,0,1,0,-8,0zM936,382a4,4,0,1,0,8,0a4,4,0,1,0,-8,0z" style="stroke: #ff0000; fill: none;"></path>
     <path d="M56,423l8,8m0,-8l-8,8M56,396l8,8m0,-8l-8,8M56,378l8,8m0,-8l-8,8M56,374l8,8m0,-8l-8,8M56,374l8,8m0,-8l-8,8M56,373l8,8m0,-8l-8,8M56,124l8,8m0,-8l-8,8M56,122l8,8m0,-8l-8,8M56,119l8,8m0,-8l-8,8M56,119l8,8m0,-8l-8,8M56,103l8,8m0,-8l-8,8M56,100l8,8m0,-8l-8,8M56,94l8,8m0,-8l-8,8M136,386l8,8m0,-8l-8,8M136,141l8,8m0,-8l-8,8M136,106l8,8m0,-8l-8,8M136,82l8,8m0,-8l-8,8M216,416l8,8m0,-8l-8,8M216,145l8,8m0,-8l-8,8M216,143l8,8m0,-8l-8,8M216,141l8,8m0,-8l-8,8M216,122l8,8m0,-8l-8,8M296,452l8,8m0,-8l-8,8M296,444l8,8m0,-8l-8,8M296,429l8,8m0,-8l-8,8M296,424l8,8m0,-8l-8,8M296,416l8,8m0,-8l-8,8M296,414l8,8m0,-8l-8,8M296,407l8,8m0,-8l-8,8M296,147l8,8m0,-8l-8,8M376,451l8,8m0,-8l-8,8M376,432l8,8m0,-8l-8,8M376,426l8,8m0,-8l-8,8M376,421l8,8m0,-8l-8,8M376,154l8,8m0,-8l-8,8M376,153l8,8m0,-8l-8,8M376,151l8,8m0,-8l-8,8M376,150l8,8m0,-8l-8,8M376,149l8,8m0,-8l-8,8M376,146l8,8m0,-8l-8,8M376,144l8,8m0,-8l-8,8M456,456l8,8m0,-8l-8,8M456,174l8,8m0,-8l-8,8M536,464l8,8m0,-8l-8,8M536,459l8,8m0,-8l-8,8M536,457l8,8m0,-8l-8,8M536,449l8,8m0,-8l-8,8M536,448l8,8m0,-8l-8,8M536,204l8,8m0,-8l-8,8M536,202l8,8m0,-8l-8,8M536,199l8,8m0,-8l-8,8M536,193l8,8m0,-8l-8,8M536,188l8,8m0,-8l-8,8M536,175l8,8m0,-8l-8,8M536,165l8,8m0,-8l-8,8M616,479l8,8m0,-8l-8,8M616,218l8,8m0,-8l-8,8M616,211l8,8m0,-8l-8,8M616,211l8,8m0,-8l-8,8M616,210l8,8m0,-8l-8,8M616,210l8,8m0,-8l-8,8M616,197l8,8m0,-8l-8,8M696,482l8,8m0,-8l-8,8M696,481l8,8m0,-8l-8,8M696,478l8,8m0,-8l-8,8M696,476l8,8m0,-8l-8,8M696,227l8,8m0,-8l-8,8M776,517l8,8m0,-8l-8,8M776,517l8,8m0,-8l-8,8M776,499l8,8m0,-8l-8,8M776,489l8,8m0,-8l-8,8M776,484l8,8m0,-8l-8,8M776,237l8,8m0,-8l-8,8M776,231l8,8m0,-8l-8,8M856,518l8,8m0,-8l-8,8M856,508l8,8m0,-8l-8,8M856,506l8,8m0,-8l-8,8M856,247l8,8m0,-8l-8,8M856,243l8,8m0,-8l-8,8M936,532l8,8m0,-8l-8,8M936,504l8,8m0,-8l-8,8M936,245l8,8m0,-8l-8,8M936,245l8,8m0,-8l-8,8M936,204l8,8m0,-8l-8,8" style="stroke: #ff0000; fill: none;"></path>
    </g>
   </svg>
   <g>
    <g transform="translate(0,640)">
     <path d="M0,0h960M0,-24V0M82,-12V0M155,-12V0M237,-24V0M316,-12V0M397,-12V0M476,-24V0M557,-12V0M639,-12V0M718,-24V0M800,-12V0M878,-12V0M960,-24V0" style="stroke: black; stroke-width: 1;"></path>
     <g font-family="Arial" font-size="28" space="preserve" fill="black" text-anchor="middle">
      <text dy=".8em" transform="translate(0,6)">
       01/10
      </text>
      <text dy=".8em" transform="translate(237,6)">
       04/10
      </text>
      <text dy=".8em" transform="translate(476,6)">
       07/10
      </text>
      <text dy=".8em" transform="translate(718,6)">
       10/10
      </text>
      <text dy=".8em" transform="translate(960,6)">
       01/11
      </text>
     </g>
     <g font-family="Arial" font-size="28" space="preserve" transform="translate(960,45)">
      <text fill="black" text-anchor="end" dy=".4em">
       Date [month/year]
      </text>
     </g>
    </g>
    <g>
     <path d="M0,0v640M36,640H0M18,627H0M18,614H0M18,602H0M18,589H0M36,576H0M18,563H0M18,550H0M18,538H0M18,525H0M36,512H0M18,499H0M18,486H0M18,474H0M18,461H0M36,448H0M18,435H0M18,422H0M18,410H0M18,397H0M36,384H0M18,371H0M18,358H0M18,346H0M18,333H0M36,320H0M18,307H0M18,294H0M18,282H0M18,269H0M36,256H0M18,243H0M18,230H0M18,218H0M18,205H0M36,192H0M18,179H0M18,166H0M18,154H0M18,141H0M36,128H0M18,115H0M18,102H0M18,90H0M18,77H0M36,64H0M18,51H0M18,38H0M18,26H0M18,13H0M36,0H0" style="stroke: black; stroke-width: 1;"></path>
     <g font-family="Arial" font-size="28" space="preserve" fill="black" text-anchor="end">
      <text dy=".4em" transform="translate(-4,640)">
       0
      </text>
      <text dy=".4em" transform="translate(-4,576)">
       100
      </text>
      <text dy=".4em" transform="translate(-4,512)">
       200
      </text>
      <text dy=".4em" transform="translate(-4,448)">
       300
      </text>
      <text dy=".4em" transform="translate(-4,384)">
       400
      </text>
      <text dy=".4em" transform="translate(-4,320)">
       500
      </text>
      <text dy=".4em" transform="translate(-4,256)">
       600
      </text>
      <text dy=".4em" transform="translate(-4,192)">
       700
      </text>
      <text dy=".4em" transform="translate(-4,128)">
       800
      </text>
      <text dy=".4em" transform="translate(-4,64)">
       900
      </text>
      <text dy=".4em" transform="translate(-4)">
       1000
      </text>
     </g>
    </g>
   </g>
  </g>
  <g transform="translate(120,4)" font-family="Arial" font-size="40" space="preserve">
   <text fill="black" text-anchor="middle" dy=".8em" transform="translate(480)">
    Machine A + B
   </text>
  </g>
  <g transform="translate(936,52)" font-family="Arial" font-size="19" space="preserve" fill="black">
   <path d="M0,0H240V212H0Z" style="fill: white; stroke: black; stroke-width: 1;"></path>
   <text text-anchor="middle" dy=".4em" transform="translate(120,18)">
    h1
   </text>
   <text text-anchor="start" dy=".4em" transform="translate(12,53)">
    Entries
   </text>
   <text text-anchor="end" dy=".4em" transform="translate(228,53)">
    13000
   </text>
   <text text-anchor="start" dy=".4em" transform="translate(12,88)">
    Mean x
   </text>
   <text text-anchor="end" dy=".4em" transform="translate(228,88)">
    1.278e+9
   </text>
   <text text-anchor="start" dy=".4em" transform="translate(12,124)">
    Mean y
   </text>
   <text text-anchor="end" dy=".4em" transform="translate(228,124)">
    550.6
   </text>
   <text text-anchor="start" dy=".4em" transform="translate(12,159)">
    Std Dev x
   </text>
   <text text-anchor="end" dy=".4em" transform="translate(228,159)">
    9698376
   </text>
   <text text-anchor="start" dy=".4em" transform="translate(12,194)">
    Std Dev y
   </text>
   <text text-anchor="end" dy=".4em" transform="translate(228,194)">
    69.28
   </text>
   <path d="M0,35h240" style="stroke: black; stroke-width: 1;"></path>
  </g>
  <g transform="translate(936,52)" font-family="Arial" font-size="21" space="preserve">
   <path d="M0,0H240V192H0Z" style="fill: white; stroke: black; stroke-width: 1;"></path>
   <path d="M7,15v72h46v-72z" style="fill: #ffff00; stroke: #00009a; stroke-width: 1;"></path>
   <text fill="black" text-anchor="start" dy=".4em" transform="translate(60,51)">
    Machine A + B
   </text>
   <path d="M7,105v72h46v-72z" style="fill: #00ff00; stroke: #ff0000; stroke-width: 1;"></path>
   <text fill="black" text-anchor="start" dy=".4em" transform="translate(60,141)">
    Machine B
   </text>
  </g>
 </g>
</svg>
